X:1
T:Valse en fa mineur
T:Valse
T:Valse en fa mineur
T:Manuscrit autographe
T:à Mlle Elise Gavard
T:Op. 70 No. 2 Brown-Index 138 Paris, 1841
T:Frédéric Chopin
T:Public Domain
T:Public Domain
C:Frédéric Chopin
Z:Public Domain
%%score { ( 1 4 ) | ( 2 3 ) }
L:1/8
Q:1/4=100
M:3/4
K:Ab
V:1 treble nm="Piano"
V:4 treble 
V:2 bass 
V:3 bass 
V:1
 (c2- | c2 dcBA |: G3 F F2) | (f2 Bced |{cde} d3 c c2) |[K:Ab] (=Bcdcfg | aA=egfF | c_edDcB | %8
 Gc=Bcd=d | e2 fedc | B3 A A2) | (a2 cegf |{=def} e3 =d d2) | (c'3 b=a_a | agfe=dc) | (cB=AB=dc) | %16
{/=d} (cB=AB=dc | B2) (c'b=a_a | ^fg=deEc | BB,GcFB) |1 E3 _d({cd)e} d>c | (c2 dcBA) :|2 E4 (=E2 || %23
 F4 G2 | (3ABA GAcB) | z2 (=DFEA | C6) |!<(! (G,DEGd>f!<)! |!>(! f4!>)! e2) | %29
 (P[ce]2!<(! [=B=d][ce][_df][ce] | [ca]4)!<)! G2 | (F4 G2 | (3ABA GAcB) | z2 (=DFEA | C6) | %35
 (G,CE!<(!Gc>e | [Ge]4!<)! [F=d]2) | (=d7/2 [Ec]/ [Ec]2) | z2 z3/2 [_Gc]/ ([Gc]2 | c2) (F2 G2 | %40
 (3ABA GAcB) | z2 (=DFEA | C6) |!<(! (G,DEGd>!<)!f |!>(! f4!>)! e2) | (P[ce]2 [=B=d][ce][_df][ce] | %46
 [ca]4) G2 | (F4 G2 | (3ABA GAcB) | z2 (=DFEA | C6) | z2 (=DEFG | TF2 EFGA | TA2 GABc | A4) |] %55
V:2
 z2 | F,6 |: E,6 | D,4 B,,2 | F,,2 [A,F]2 [A,F]2 |[K:Ab] =E,2 [_B,CG]2 [B,CG]2 | F,2 [A,CF]2 z2 | %7
 B,,2 [F,G,D]2 [F,G,D]2 | C,2 [G,=E]2 z2 | A,,2 [A,C_E]2 [A,CE]2 | G,6 | F,6 | %12
 B,,2 [A,B,F]2 [A,B,F]2 | B,,2 [A,=D]2 [A,D]2 | B,,2 [G,E]2 [G,E]2 | B,,2 [A,B,=D]2 [A,B,D]2 | %16
 B,,2 [G,B,E]2 [G,B,E]2 | B,,2 [A,=D]2 [A,D]2 | E,2 [G,E]2 =A,,2 | B,,2 [B,E]2 [_A,=D]2 |1 %20
 E,2 G2 C,2 | F,6 :|2 E,2 [G,B,G]2 z2 || _D,2 [F,B,_D]2 [F,B,D]2 | B,,2 [F,D]2 [F,D]2 | %25
 E,2 [A,C]2 [A,C]2 | E,,2 [E,A,]2 [E,A,]2 | E,,2 [DEG]2 [DEG]2 | E,2 [DEG]2 [DEG]2 | A,2 E2 E,2 | %30
 A,,2 [E,A,C]2 [E,A,C]2 | D,6 | B,,2 [F,A,D]2 [E,G,D]2 |!<(! A,,2 [E,C]2 [E,C]2 | %34
 A,,2 [=D,F,]2!<)! [E,^F,]2 | G,,2 [E,G,C]2 [E,G,C]2 | G,,2 [G,=B,G]2 [G,B,G]2 | %37
 C,2 [G,CG]2 [G,CG]2 | C,6 | _D,6 | B,,2 [F,D]2 [F,D]2 | E,2 [A,C]2 [A,C]2 | E,,2 [E,A,]2 [E,A,]2 | %43
 E,,2 [DEG]2 [DEG]2 | E,2 [DEG]2 [DEG]2 | A,2!<(! E2 E,2 | A,,2!<)! [E,A,C]2 [E,A,C]2 | D,6 | %48
 B,,2 [F,A,D]2 [F,A,D]2 | E,2 [A,C]2 [A,C]2 | E,,2 [E,A,]2 [E,A,]2 | E,6 | E,6 | E,6 | %54
 A,,2 [E,C]2 |] %55
V:3
 x2 | z2 [A,C]2 [A,C]2 |: z2 [F,A,C]2 [F,A,C]2 | z2 [F,B,]2 z2 | x6 |[K:Ab] x6 | x6 | x6 | x6 | %9
 x6 | z2 [A,CE]2 [A,CE]2 | z2 [A,CE]2 [A,CE]2 | x6 | x6 | x6 | x6 | x6 | x6 | x6 | x6 |1 %20
 x2 B,2- B,2 | z2 [A,C]2 [A,C]2 :|2 x6 || x6 | x6 | x6 | x6 | x6 | x6 | x6 | x6 | %31
 z2 [A,B,]2 [A,B,]2 | x6 | x6 | x6 | x6 | x6 | x6 | z2 [=A,E]2 [A,E]2 | z2 [_A,B,]2 [A,B,]2 | x6 | %41
 x6 | x6 | x6 | x6 | x6 | x6 | z2 [A,B,]2 [A,B,]2 | x6 | x6 | x6 | z2 [A,B,]2 [A,B,]2 | %52
 z2 [G,_D]2 [G,D]2 | z2 [B,_DE]2 [B,DE]2 | x4 |] %55
V:4
 x2 | x6 |: x6 | x6 | x6 |[K:Ab] x6 | x6 | x6 | x6 | x6 | x6 | x6 | x6 | x6 | x6 | x6 | x6 | x6 | %18
 x6 | x6 |1 x4 =E2 | x6 :|2 x6 || x6 | x6 | x6 | x6 | x6 | d6 | x6 | x6 | x6 | x6 | x6 | x6 | x6 | %36
 x6 | x6 | x6 | x6 | x6 | x6 | x6 | x6 | d6 | x6 | x6 | x6 | x6 | x6 | x6 | x6 | x6 | x6 | x4 |] %55

